X:1
T:Trio Sonata No.6 in a-moll from "12 Trio Sonatas Op.2 "
T:Trio Sonata No.6 in a-moll
T:from " 12 Trio Sonatas Op.2 " Transcribed for 2 Recorders and B/C in a-moll from IMSLP#372338 PDF File
T:Arcangelo Corelli (1653 — 1713) Arr. by : Alfred Moffat (1866-1950) 
T:Public Domain - Non-PD EU
T:Public Domain - Non-PD EU
T:Public Domain - Non-PD EU
T:Public Domain - Non-PD EU
T:Public Domain - Non-PD EU
C:Arcangelo Corelli (1653 — 1713)
Z:Public Domain - Non-PD EU
%%score [ 1 2 3 ] { ( 4 6 7 9 ) | ( 5 8 ) }
L:1/8
Q:1/4=50
M:4/4
K:Bb
V:1 treble nm="Alto Recorder" snm="A. Rec."
V:2 treble nm="Tenor Recorder" snm="T. Rec."
V:3 bass nm="Viola da gamba" snm="Vla. d. g."
V:4 treble nm="Harpsichord" snm="Hch."
V:6 treble 
V:7 treble 
V:9 treble 
V:5 bass 
V:8 bass 
V:1
"^Largo.""^1. Allemanda." z/ d/ | d>c c>g ^f d2 b | ag(g^f) gd G!p!(g/a/) | %3
 (bg)(=f>e) dB z (f/g/) | e>fd>e c2 Bf | gc (c>B) B2 d2- | d(c- cB/A/) BG g2- | %7
 ga/b/!>(! ag ^fd a2-!>)! | (ag/^f/) (g3 f/=e/) f/f/e/d/ | ^cd (d>c) d3 :| z/ ^f/ | %11
 ^f2 z/ f/=e/f/ g>ga>a | b3 b/a/ g>gf>e | dd/e/ f3 B e2- | eA d(b/a/) g/f/e/d/ (Tc>f) | %15
 B3!p! (d/=e/) f(g/f/) (e>f) | f (_a2"_cresc." g/f/) (_e/g/f/e/) (d>c) | c3 f/_e/ d d2 b/a/ | %18
 g(g/a/) g2 ^f (d2!f! g/=f/) | e/d/c/B/ (TA>G) G3!p! g/f/ | (e/d/c/B/) (TA>G) !fermata!G3 :| z/8 | %22
[M:3/4][Q:1/4=120]"^Allegro""^2. Corrente." z!mf! d | d3 e dc | Bd GB dg | ^f3 d g=f | eg Acfc | %27
 d3 f Bd | ce"_cresc." ^FdcA | B3 d e^F |!f! GA (A3 G) | G3 d g2 | B2 (c3 d) | d4 :: z!mf! ^f | %35
 ^f3 d'fa | d^f ad'c'a | b3 b af | gb egcf | d3 F BA | G"_cresc."B [Ee]GcB | A3 f Bf | gc (c3 B) | %43
 B4!f! f2- | f2 (=e3 f) | f3 ^f f2- | fg (g3 a) | a3 b d2 | cB (TA3 G) | G4 :| z/8 | %51
[M:12/8][Q:3/8=100]"^3. Giga." z!p! dc (BA)G (d2 g) | (^f2 d) z2 d' (c'd')b Ta3 | %53
 g3 z (ga) (ba)g f2 e | (d2 e) f3-"_cresc." fgd e3- | efc d3- deB c3- | cdA (Bbf)!f! (ged) Tc3 | %57
 B3 z2!p! b (ged) Tc3 | B3 z2 b a3 z2 a |"_cresc." g3 z2 b (aba) (gag) | %60
 ^f3 z2!mf! d' (d'c')b c'2 c' | (c'2 b) z2 b (b_a)g a2 a | (_a2 g) z2 =a!f! (efg) (g2 ^f) | %63
 g2 g (ag)a b2 g gag | ^f3 B3 A3 B3 | A3 :| z!p! (ag) (^fga) (d2 d') | b3 z g=f (efg) (c2 f) | %68
 d3 z!f! (de) (fgf) e2 d | c3 (B2 b) (ged) Tc3 | B3 z!p! de fgf e2 d | c3 (B2 b) (ged) Tc3 | %72
 B3 z!f! (d=e) f2 f (fg)d | e g2- gfe (d2 e) (e d2) | c3 z (dc) (BAG) d2 g | ^f3 z2 f (gfg) (aga) | %76
 b2 d e3!p! (ded) (cdc) | B3- BAG dcB A3 | G2 d e3!p! (ded) (cdc) |"_cresc." B3- BAG (d>cB) A3 | %80
 !fermata!G3 |] %81
V:2
 z/ B/ | B>G G>d d3 g | ^fba>g g2 z!p! B/c/ | (dB)(c>c) F3 c | B2 A2 G2 FB | B2 (BA) B2 g>g | %6
 a3 a d3 b | =e3!>(! e A3 A!>)! | (d3 =e/d/) ^cA a/a/g/^f/ | =e^f (Te>d) d3 :| z/ a/ | %11
 a2 z/ a/g/a/ b>Bd>d | d3 d/c/ B>Bc>c | F2 z c BG z/ d/c/B/ | AF B(g/f/) e/d/c/B/ (A>B) | %15
 d3!p! g c(b/a/) (g>f) | f2"_cresc." d2 (Gc) (c=B) | c2 c2 F2 f2 | B2 e2 A2 d2 | %19
!f! gG (G^F) G2!p! d2 | gG (G>^F) !fermata!G3 :| z/8 |[M:3/4] z!mf! G | B4 A2 | D4 B2 | A4 d2 | %26
 G2 c4 | F4 d2 | e2"_cresc." A2 a2 | d3 d c2 |!f! B2 (^F3 G) | G4 B2 | d2 g4 | ^f4 :: z!mf! ^f | %35
 a6 | A4 a2 | d4 f2 | B2 c4 | F4 f2 |"_cresc." B4 g2 | c4 B2 | B2 (A3 f) | d4!f! c2 | d2 B4 | %45
 A3 a (a2- | ad) d3 c | c3 d B2 | AG (T^F3 G) | G4 :| z/8 |[M:12/8] z2!p! ^F G2 B B2 c | %52
 A3 z2 b (=e^f)g (g2 f) | g3 z (Bc) (dc)B c2 c | F3 z2 c"_cresc." B3- BcG | A3 z2 F (F2 E) (EG)E | %56
 (TE2 D) z2 B!f! (BcB) (B2 A) | B3 z2!p! f (b2 B) (B2 A) | B3 z2 d c3 z2 c | %59
"_cresc." B3 z2 d (cdc) (BcB) | A3 z2!mf! ^f g2 g a2 a | d3 z2 d e2 e f2 f | %62
 B3 z2 d!f! (cdB) (A2 G) | G3 d3- d2 B (cB)c | d3 G3 ^F3 G3 | ^F3 :| z z!p! ^f (a2 f) (f2 a) | %67
 g3 z2 d B2 B c2 c | F3 z2!f! d (cdc) B2 A | G3 (F2 f) (b2 B) (B2 A) | B3 z2!p! d cdc B2 A | %71
 G3 (F2 f) (b2 B) (B2 A) | B3 z2!f! B c2 c d2 d | G e2- edc (=B2 c) (cdB) | c3 z2 A d2 B B2 c | %75
 A3 z2 a b2 B d2 d | d3 z2!p! B (ABA) (GAG) | FGF E2 e ^FDG GAF | G3 z2!p! B (ABA) (GAG) | %79
"_cresc." (FGF) E2 e (^FD)G (GA)F | !fermata!G3 |] %81
V:3
 z/ G,/ | G,2 E,2 D,2 B,,2 | C,2 D,2 G,,2 z!p! B,,/^A,,/ | G,,2 A,,2 B,,2 A,,2 | G,,2 F,2 E,2 D,2 | %5
 E,2 F,2 B,,2 (B,>B,) | ^F,3 F, (G,>A,)(B,>G,) | ^C,3!>(! C, D,2 z =C,!>)! | %8
 B,,2 z G,, A,,2 z ^F, | G,D, A,A,, D,3 :| z/ D/ | D2 C2 B,G,^F,D, | G, G,,2 G,/A,/ B,G,A,>A, | %13
 B,B,, z A, G,G,, z C, | F,F,, z D, E,B,,F,F,, | B,,2!p! B,2 A,B, CC, | %16
 F,2"_cresc." =B,,2 C,F, G,G,, | C,2 A,,2 B,,2 D,2 | E,2 C,2 D,2 B,,2 |!f! C,G,, D,2 G,,2!p! B,,2 | %20
 C,G,, D,2 !fermata!G,,3 :| z/8 |[M:3/4] z!mf! G, | G,4 ^F,2 | G,4 G,,2 | D,4 B,,2 | C,4 A,,2 | %27
 B,,4 B,,2 | C,2"_cresc." D,2 ^F,2 | G,3 B,, C,2 |!f! G,,2 D,4 | G,,4 G,2- | G,2 E,4 | D,4 :: %34
 z!mf! D, | D,4 D,2 | ^F,4 F,2 | G,4 D,2 | E,2 C,2 A,,2 | B,,4 D,2 |"_cresc." E,4 =E,2 | F,4 D,2 | %42
 E,2 F,4 | B,,4!f! A,,2 | B,,2 C,4 | F,4 D,2 | C,2 B,4 | ^F,4 G,2 | C,2 D,4 | G,,4 :| z/8 | %51
[M:12/8] z2 z!p! G,3 G,,3 | D,3 B,,3 C,3 D,3 | G,,3- G,,3 G,3 A,3 | B,,3 A,3"_cresc." G,3 C,3 | %55
 F,3 B,,3 G,,3 A,,3 | B,,3 D,3!f! E,3 F,3 | B,,3!p! D,3 E,3 F,3 | B,,3 B,,3 F,3 ^F,3 | %59
"_cresc." G,3 B,,3 C,3 G,,3 | D,3 D,3!mf! =E,3 ^F,3 | G,3 B,,3 C,3 D,3 | E,3 A,,3!f! C,3 D,3 | %63
 G,3 ^F,3 G,3 E,3 | D,3 G,,3 D,3 G,,3 | D,3- :|!p! D,3 D3 D,3 | G,6 G,,3 A,,3 | %68
 B,,3 z2!f! B, (A,B,A,) G,2 F, | E,3 D,2 D, E,2 B,, F,2 F,, | B,,3 z2!p! B, A,B,A, G,2 F, | %71
 E,3 D,2 D, (E,2 B,,) (F,2 F,,) | B,,3 z2!f! B, A,2 A, (=B,A,)B, | C3 z2 E, (F,E,F,) (G,2 G,,) | %74
 C,3 ^F,3 G,3 G,,3 | D,3 z (DC) (B,A,)G, ^F,2 D, | G,3 z2!p! G, (F,G,F,) (E,F,E,) | %77
 D,E,D, C,3- C,B,,C, D,2 D, | G,,3 z2!p! G, (F,G,F,) (E,F,E,) | %79
"_cresc." (D,E,D,) C,3- (C,B,,C,) D,2 D,, | !fermata!G,,3 |] %81
V:4
 z/ [DGB]/ | [DGB]2 [CGc]2 d4 | [Ec]2 A2 B2 z2 | [Dd]2 [EFc]2 [FB]2 [CFc]2 | EedA (CcBF) | %5
 G B2 A [DFB]2 Gd | d2 c2 B>cdB | =e2 A2 [D^FA]2 [FAd]2 | ([Dd]4 ^c2 d2) | (^c d2 c d3) :| %10
 z/ [^FAd]/ | ([^FAd]4 dBAd) | ([DB]3 B/A/ GBAc) | [Fd]2 z [Fc] [GB]2 z [Ac]/[GB]/ | %14
 [FA]2 z [FBf] ([GBe][FBd]) (BA) | [DFB]2 [DBd]2 cd [=EG]2 | (F=B,DG) [C_EG][CF_A] D2 | %17
 (Ec c2) ((FB)(Bf)) | (B2 c2) ((^FA)(Gd)) | ([Dc]>[DB]) (A>d) ([GB]>AGd) | %20
 ([Ge]/[Fd]/[Ec]/[DB]/) (A>G) !fermata![B,DG]3 :| z/8 x/4 |[M:3/4] z2 | (B4 A2 | B2 G2 d2) | %25
 (A4 G2 | G2 c4) | (F2 B2 d2) | [EAc]2 A4 | ([DG]2 [DGB]2 [E^FA]2) | [GB]2 [^FA]4 | [B,DG]2 [GB]4 | %32
 ([Bd]2 c4) | .[^Fd]4 :: z2 | d4 z2 | (A2 d3 c) | [GB]4 [=FA]2 | c6 | B4 z2 | ([B,G]4 cB) | %41
 ([FA][GB] [Ac]2) (Bd) | c2 ([Ac]3 B) | ([DB]2 [Fd]2) [F-cf-]2 | [Fdf]2 [Bc]4 | (f2 d4-) | %46
 (d4 G2) | (A2 d2 [GB]2) | ([Ac]2 A2 d2) | [DGd]4 :| z/8 |[M:12/8] z ([Fd]D) z ([GB]D) z ([GB]D) | %52
 z ([^FA]D) z ([Gd]D) z ([Ad]D) z ([FA]D) | z ([GB]D) z ([GB]D) z ([Bd]D) z (cE) | %54
 z ([FB]D) z (([Fc]C) z (B)D) z ([EB]C) | z ([EA]C) z ([DB]B,) z ([EB]B,) z ([EG]C) | %56
 (F2 D) z BB, z ([EG]B,) [EF]3 | z ([DF]B,) z ([FB]B,) z (GB,) [EF]3 | %58
 z ([DF]B,) z ([FB]D) z ([Ac]C) z ([Ac]D) | z [GB]D z ([Gd]D) z (AC) z ([DG]B,) | %60
 z ([D^F]A,) z [FA]A, z (c=E) z ([Ac]D) | z ([GB]D) z ([Gd]D) z ([E_A]C) z ([FA]B,) | %62
 z ([EG]B,) z ([FB]D) z ([EG]C) z (G^F) | z ([DG]B,) z ([DA]A,) z ([GB]D) z ([Gc]C) | %64
 z ([^FA]D) z ([GB]D) ([FA][=EG][DF] [GB][Ac][Bd]) | [D^FA]3 :| z ([FA]D) z ([FA]D) z ([Ad]F) | %67
 ([GB]DB, G,2) z2 (EA,) z (EC) | ([B,D]FB d2) D (CDC) B,2 A, | %69
 z (F,C) z ([FB]B,) z ([EG][DB]) (B2 A) | ([DB]FD B,2) .D CDC B,2 A, | %71
 z (G,C) z ([FB]B,) z ([EG][DB]) ([CFB]2 A) | ([DB]2 [Fd]) F2 z [CF]2 [CF] (F2 G) | %73
 [EG]2 [Ec] [Ec]2 c (d2 c) (c2 =B) | z ([Gc]E) z ([Ac]D) z ([GB]D) z ([GB]D) | %75
 [^FA]Dd d2 z (GAB ABc) | ([DB]2 [Gd] [Bg]2) B (ABA) (GAG) | FGF EAe d2 G G2 ^F | %78
 (G2 [Gd] [Bg]2) B (ABA GAG) | (FGF) (EAe) (d2 G) (G2 ^F) | !fermata![B,G]3 |] %81
V:5
 z/ [G,,G,]/ | [G,,G,]2 [E,,E,]2 [D,,D,]2 [B,,,B,,]2 | [C,,C,]2 [D,,D,]2 [G,,,G,,]2 z2 | %3
 [G,,G,]2 [A,,A,]2 [B,,B,]2 [A,,A,]2 | [G,,G,]2 [F,,F,]2 [E,,E,]2 [D,,D,]2 | %5
 [E,,E,]2 [F,,F,]2 [B,,,B,,]2 B,2 | (^F,4 G,>A,B,G,) | [^C,,^C,]3 [C,,C,] [D,,D,]3 [=C,,=C,] | %8
 [B,,,B,,]2 z G,, A,,2 z ^F, | G,D, A,A,, [D,A,]3 :| z/ [D,D]/ | %11
 [D,D]2 [=C,=C]2 [B,,B,][G,,G,][^F,,^F,][D,,D,] | [G,,G,]3 G,/A,/ B,G, A,>B, | %13
 B,B,, z A, G,G,, z C, | F,F,, z [D,,D,] [E,,E,][B,,,B,,][F,,F,][F,,,F,,] | %15
 [B,,,B,,]2 B,2 A,B,CC, | F,2 =B,,2 C,F, G,G,, | C,2 [A,,,A,,]2 [B,,,B,,]2 [D,,D,]2 | %18
 [E,,E,]2 [C,,C,]2 [D,,D,]2 [B,,,B,,]2 | [C,,C,][G,,,G,,] [D,,D,]2 G,,2 B,,2 | %20
 C, G,, D,2 !fermata!G,,3 :| x/4 z/8 |[M:3/4] z2 | G,4 ^F,2 | G,4 G,,2 | D,4 B,,2 | C,4 A,,2 | %27
 B,,4 B,,2 | C,2 D,2 ^F,2 | G,3 B,, C,2 | G,,2 D,4 | G,,4- [G,,G,-]2 | [G,,G,]2 [E,,E,]4 | %33
 [D,,D,]4 :: z2 | D,4 D,2 | ^F,4 F,2 | G,4 D,2 | E,2 C,2 A,,2 | B,,4 D,2 | E,4 =E,2 | F,4 D,2 | %42
 _E,2 F,2 F,,2 | B,,4 [A,,,A,,]2 | [B,,,B,,]2 [C,,C,]4 | [D,,D,]4 [D,D]2 | [C,C]2 [B,,B,]4 | %47
 [^F,,^F,]4 [G,,G,]2 | [C,,C,]2 [D,,D,]4 | .[G,,D,B,]4 :| z/8 |[M:12/8] D,3 G,3 G,,3 | %52
 D,3 B,,3 C,3 D,3 | G,,6 G,3 A,3 | B,3 A,3 G,3 C,3 | F,3 B,,3 G,,3 A,,3 | %56
 B,,3 [D,,D,]3 [E,,E,]3 [F,,F,]3 | [B,,,B,,]3 [D,,D,]3 [E,,E,]3 [F,,F,]3 | B,,3 B,3 F,3 ^F,3 | %59
 [G,,G,]3 [B,,,B,,]3 [C,,C,]3 [D,,D,]3 | D,3- [D,,D,]3 [=E,,=E,]3 [^F,,^F,]3 | %61
 [G,,G,]3 [B,,,B,,]3 [C,,C,]3 [D,,D,]3 | [E,,E,]3 [B,,,B,,]3 [C,,C,]3 [D,,D,]3 | %63
 [G,,G,]3 [^F,,^F,]3 [G,,G,]3 [E,,E,]3 | [D,,D,]3 G,,3 D,3 G,,3 | D,,3 :| D,3 D3 D,3 | %67
 G,6 G,,3 A,,3 | B,,2 z2 z B, (A,B,A,) G,2 F, | E,3 D,2 D, E,2 B,, F,2 F,, | %70
 B,,3- B,,2 B, A,B,A, G,2 F, | [E,,E,]3 [D,,D,]2 [D,,D,] [E,,E,]2 B,,, [F,,F,]2 F,, | %72
 [B,,,B,,]3 B,2 B, A,2 A, (=B,A,B,) | C3 C,2 E, (F,E,F,) G,2 G,, | C,3 ^F,3 G,3 G,,3 | %75
 D,3 z (DC) (B,A,G,) ^F,2 D, | G,3- G,2 G, (=F,G,F,) (E,F,E,) | D,E,D, C,3- C,B,,C, D,2 D,, | %78
 G,,3- G,,2 G, (=F,G,F, E,F,E,) | (D,E,D,) C,3- C,B,,C, D,2 D,, | !fermata!G,,3 |] %81
V:6
 x | x4 [^FA]2 [DG]2 | AG C2 [DG]2 x2 | x8 | x8 | G2 [CF]2 x2 D2 | [DA]4 x4 | [=EG]4 x4 | %8
 (A2 G2) (AG^FD) | =E^F [EA]2 [FA]3 :| x | x4 [DG]2 D^F | x3 D D2 F2 | x8 | x6 [_Ec]2 | x4 F2 x2 | %16
 x6 C=B, | C2 [CF]F D2 F2 | (GF E2) D2 D2 | G2 G^F x4 | G2 D2- x3 :| z/8 |[M:3/4] x2 | D6 | D6 | %25
 ^F2 D4 | E4 =F2 | D4 x2 | x2 [D^F]2 D2 | x6 | x2 (D2 C2) | x2 D4- | D2 G4 | x4 :: x2 | %35
 ([^FA]2 [DF]4) | D2 [DA]4 | D6 | C2 E4 | ([DF][CE] [B,D]2 [B,F]2) | x4 [CG]2 | C4 F2 | G2 E4 | %43
 x6 | x2 (=e3 f) | A4 ^F2- | F2 [DG]4 | D6 | E2 A2 x2 | x4 :| x/4 |[M:12/8] x9 | x12 | x12 | x12 | %55
 x12 | x9 (B,2 A,) | x9 (B,2 A,) | x12 | x12 | x12 | x12 | x10 [A,D]2 | x12 | x6 D3- D3 | x3 :| %66
 x9 | x12 | x12 | x9 [CF]3 | x12 | x12 | x9 D3 | x5 G A3 [DG]3 | x12 | x6 D3 D3 | x12 | %77
 x6 ^F D2 [A,D]3 | B,2 x10 | x6 ^F D2 [A,D]2 x | x3 |] %81
V:7
 x | x8 | x2 G^F x4 | x8 | x8 | x8 | x8 | x8 | x8 | x7 :| x | x8 | x8 | x8 | x8 | x8 | x8 | x8 | %18
 x8 | x2 D2 D4 | x7 :| x3/8 |[M:3/4] x2 | x6 | x6 | x6 | x6 | x6 | x6 | x6 | x6 | x6 | x6 | x4 :: %34
 x2 | x6 | x6 | x6 | x6 | x6 | x6 | x6 | x6 | x6 | x6 | x6 | x6 | x6 | x6 | x4 :| x/4 | %51
[M:12/8] x9 | x12 | x12 | x12 | x12 | x12 | x12 | x12 | x12 | x12 | x12 | x12 | x12 | x12 | x3 :| %66
 x9 | x12 | x12 | x12 | x12 | x12 | x12 | x12 | x12 | x12 | x12 | x12 | x12 | x12 | x3 |] %81
V:8
 x | x8 | x8 | x8 | x8 | x8 | x8 | x8 | x8 | x2 A,2 x3 :| x | x8 | x8 | x8 | x8 | x8 | x8 | x8 | %18
 x8 | x8 | x7 :| x3/8 |[M:3/4] x2 | x6 | x6 | x6 | x6 | x6 | x6 | x6 | x6 | x6 | x6 | x4 :: x2 | %35
 x6 | x6 | x6 | x6 | x6 | x6 | x6 | x6 | x6 | x6 | x6 | x6 | x6 | x6 | x4 :| x/4 |[M:12/8] x9 | %52
 x12 | x12 | x12 | x12 | x12 | x12 | x12 | x12 | x12 | x12 | x12 | x12 | x12 | x3 :| x9 | x12 | %68
 x12 | x12 | x12 | x12 | x12 | x12 | x12 | x12 | x12 | x12 | x12 | x12 | x3 |] %81
V:9
 x | x8 | x8 | x8 | x8 | x8 | x8 | x8 | x8 | x7 :| x | x8 | x8 | x8 | x8 | x8 | x8 | x8 | x8 | x8 | %20
 x2 G^F x3 :| x3/8 |[M:3/4] x2 | x6 | x6 | x6 | x6 | x6 | x6 | x6 | x6 | x6 | x6 | x4 :: x2 | x6 | %36
 x6 | x6 | G4 F2 | x6 | x6 | x6 | x6 | x6 | x6 | x6 | x6 | x6 | x6 | x4 :| x/4 |[M:12/8] x9 | x12 | %53
 x12 | x12 | x12 | x12 | x12 | x12 | x12 | x12 | x12 | x12 | x12 | x12 | x3 :| x9 | x12 | x12 | %69
 x12 | x12 | x12 | x12 | x12 | x12 | x12 | x12 | x12 | x12 | x12 | x3 |] %81

